static/assets/images/protocols/sonne-finance-mono.svg

<svg width="400" height="324" viewBox="0 0 400 324" fill="none" xmlns="http://www.w3.org/2000/svg">
<path d="M200.674 7.33523e-05L199.122 0.00548889C192.61 0.0282084 187.35 5.32291 187.373 11.8315L187.431 28.5989C187.454 35.1075 192.751 40.3654 199.263 40.3427L200.815 40.3373C207.327 40.3145 212.587 35.0198 212.564 28.5112L212.506 11.7438C212.483 5.23522 207.186 -0.0226461 200.674 7.33523e-05Z" fill="black"/>
<path d="M100.301 26.56L99.2018 27.2227C93.5131 30.6527 91.6834 38.0427 95.1151 43.7288L103.549 57.703C106.98 63.389 114.374 65.2179 120.063 61.7879L121.162 61.1252C126.85 57.6952 128.68 50.3051 125.248 44.6191L116.815 30.6449C113.383 24.9588 105.99 23.13 100.301 26.56Z" fill="black"/>
<path d="M300.597 27.0706L299.519 26.4308C293.814 23.0448 286.442 24.9228 283.055 30.6256L274.658 44.7609C271.27 50.4637 273.149 57.8316 278.854 61.2177L279.932 61.8574C285.638 65.2435 293.009 63.3654 296.397 57.6626L304.794 43.5273C308.181 37.8245 306.302 30.4566 300.597 27.0706Z" fill="black"/>
<path d="M256.19 81.3787C284.855 94.6256 306.516 116.112 321.172 145.838C321.228 145.945 321.256 146.065 321.251 146.185C321.246 146.306 321.21 146.424 321.145 146.527C321.081 146.631 320.99 146.717 320.882 146.776C320.775 146.836 320.653 146.867 320.53 146.867C257.647 146.837 195.844 146.837 135.121 146.867C128.405 146.867 123.315 144.108 118.629 139.289C111.366 131.81 104.232 124.665 97.2271 117.852C97.1033 117.736 97.0294 117.576 97.0211 117.406C97.0127 117.237 97.0705 117.07 97.1823 116.942C118.644 92.189 144.573 76.9929 174.97 71.354C203.307 66.1029 230.38 69.4445 256.19 81.3787Z" fill="black"/>
<path d="M57.9506 103.131L43.7648 94.8119C38.0489 91.4599 30.6966 93.3741 27.343 99.0874L26.7086 100.168C23.3551 105.882 25.2702 113.23 30.9862 116.582L45.172 124.901C50.8879 128.253 58.2402 126.339 61.5938 120.626L62.2282 119.545C65.5817 113.832 63.6666 106.483 57.9506 103.131Z" fill="black"/>
<path d="M356.069 94.7581L341.901 103.166C336.196 106.552 334.317 113.92 337.705 119.623L338.345 120.701C341.732 126.403 349.104 128.281 354.809 124.895L368.977 116.487C374.682 113.101 376.561 105.733 373.173 100.03L372.533 98.9529C369.146 93.2501 361.774 91.3721 356.069 94.7581Z" fill="black"/>
<path d="M111.465 161.442C116.241 166.186 121.927 167.707 128.509 167.707C196.128 167.697 262.816 167.702 328.575 167.722C328.808 167.722 329.034 167.8 329.218 167.943C329.402 168.086 329.533 168.287 329.589 168.513C331.619 177.076 332.873 185.952 333.35 195.141C333.359 195.261 333.342 195.382 333.3 195.496C333.259 195.61 333.194 195.714 333.11 195.802C333.026 195.89 332.925 195.96 332.812 196.008C332.699 196.056 332.578 196.081 332.455 196.081L67.1539 196.096C67.0742 196.096 66.9954 196.08 66.922 196.049C66.8485 196.018 66.782 195.973 66.7264 195.916C66.6708 195.859 66.6271 195.791 66.598 195.717C66.5689 195.643 66.5549 195.564 66.5569 195.484C67.4922 174.102 73.273 153.978 83.8994 135.112C83.9487 135.021 84.019 134.942 84.1047 134.883C84.1905 134.823 84.2894 134.785 84.3936 134.77C84.4978 134.756 84.6044 134.766 84.7052 134.799C84.8059 134.833 84.8979 134.889 84.974 134.963C94.4959 144.52 103.326 153.347 111.465 161.442Z" fill="black"/>
<path d="M28.7826 186.966H12.0072C5.49552 186.966 0.216732 192.242 0.216732 198.751V200.273C0.216732 206.781 5.49552 212.058 12.0072 212.058H28.7826C35.2943 212.058 40.5731 206.781 40.5731 200.273V198.751C40.5731 192.242 35.2943 186.966 28.7826 186.966Z" fill="black"/>
<path d="M387.953 186.892L371.178 186.921C364.666 186.932 359.396 192.218 359.408 198.727L359.41 200.248C359.422 206.757 364.71 212.024 371.221 212.013L387.997 211.983C394.508 211.972 399.778 206.686 399.767 200.178L399.764 198.656C399.753 192.148 394.465 186.88 387.953 186.892Z" fill="black"/>
<path d="M287.815 250.873C284.666 247.726 279.771 245.309 275.249 245.309C207.152 245.319 139.165 245.324 71.288 245.324C70.8901 245.324 70.6463 245.13 70.5567 244.742C68.3379 236.04 67.0246 227.1 66.6166 217.92C66.5868 217.284 66.8952 216.966 67.5419 216.966L332.425 216.951C333.072 216.951 333.375 217.274 333.336 217.92C332.261 239.64 326.45 259.615 315.903 277.845C315.856 277.928 315.79 277.999 315.71 278.053C315.63 278.107 315.539 278.141 315.444 278.154C315.349 278.167 315.252 278.158 315.161 278.128C315.07 278.097 314.987 278.046 314.918 277.979C305.924 268.949 296.889 259.914 287.815 250.873Z" fill="black"/>
<path d="M18.201 284.468C8.15666 284.483 1.03759 277.039 0.00778679 267.104C-0.0519119 266.477 0.231657 266.164 0.858493 266.164C89.0832 266.194 177.114 266.204 264.951 266.194C269.259 266.194 273.045 267.641 276.308 270.535C280.079 273.867 284.238 278.203 288.785 283.543C289.323 284.16 289.183 284.468 288.367 284.468C198.183 284.458 108.127 284.458 18.201 284.468Z" fill="black"/>
<path d="M336.261 283.379C339.171 278.397 341.395 272.743 342.798 267.149C342.957 266.502 343.37 266.179 344.036 266.179L399.198 266.194C399.795 266.194 400.059 266.487 399.989 267.074C398.676 279.157 390.422 284.647 378.707 284.543C363.364 284.413 349.434 284.398 336.917 284.498C336.042 284.508 335.823 284.135 336.261 283.379Z" fill="black"/>
<path d="M54.1247 323.627C44.5579 323.627 37.3792 314.975 36.827 306.024C36.7872 305.368 37.0956 305.04 37.7523 305.04L362.2 305.666C362.866 305.676 363.185 306.014 363.155 306.681C362.827 313.826 358.26 320.3 351.678 322.822C349.608 323.607 346.211 324 341.484 324C245.698 324 149.628 323.627 54.1247 323.627Z" fill="black"/>
</svg>

<svg xmlns="http://www.w3.org/2000/svg" fill="none" viewBox="0 0 400 324"><path fill="#000" d="m200.674 0-1.552.005c-6.512.023-11.772 5.318-11.749 11.827l.058 16.767c.023 6.509 5.32 11.766 11.832 11.744l1.552-.006c6.512-.023 11.772-5.317 11.749-11.826l-.058-16.767C212.483 5.235 207.186-.023 200.674 0M100.301 26.56l-1.1.663c-5.688 3.43-7.518 10.82-4.086 16.506l8.434 13.974c3.431 5.686 10.825 7.515 16.514 4.085l1.099-.663c5.688-3.43 7.518-10.82 4.086-16.506l-8.433-13.974c-3.432-5.686-10.825-7.515-16.514-4.085M300.597 27.07l-1.078-.64c-5.705-3.385-13.077-1.507-16.464 4.196l-8.397 14.135c-3.388 5.703-1.509 13.07 4.196 16.457l1.078.64c5.706 3.386 13.077 1.507 16.465-4.195l8.397-14.136c3.387-5.703 1.508-13.07-4.197-16.456M256.19 81.379q42.998 19.87 64.982 64.459a.69.69 0 0 1-.027.689.721.721 0 0 1-.615.34q-94.324-.045-185.409 0c-6.716 0-11.806-2.759-16.492-7.578a1062 1062 0 0 0-21.402-21.437.655.655 0 0 1-.045-.91q32.193-37.13 77.788-45.588 42.505-7.877 81.22 10.025M57.95 103.131l-14.185-8.32c-5.716-3.351-13.068-1.437-16.422 4.276l-.634 1.081c-3.354 5.714-1.439 13.062 4.277 16.414l14.186 8.319c5.716 3.352 13.068 1.438 16.422-4.275l.634-1.081c3.354-5.713 1.439-13.062-4.277-16.414M356.069 94.758l-14.168 8.408c-5.705 3.386-7.584 10.754-4.196 16.457l.64 1.078c3.387 5.702 10.759 7.58 16.464 4.194l14.168-8.408c5.705-3.386 7.584-10.754 4.196-16.457l-.64-1.077c-3.387-5.703-10.759-7.58-16.464-4.195"/><path fill="#000" d="M111.465 161.442c4.776 4.744 10.462 6.265 17.044 6.265q101.428-.015 200.066.015a1.05 1.05 0 0 1 1.014.791q3.045 12.844 3.761 26.628a.87.87 0 0 1-.24.661.9.9 0 0 1-.655.279l-265.301.015a.596.596 0 0 1-.597-.612q1.403-32.073 17.342-60.372a.66.66 0 0 1 .495-.342.7.7 0 0 1 .58.193 8280 8280 0 0 0 26.491 26.479M28.783 186.966H12.007c-6.511 0-11.79 5.276-11.79 11.785v1.522c0 6.508 5.279 11.785 11.79 11.785h16.776c6.511 0 11.79-5.277 11.79-11.785v-1.522c0-6.509-5.279-11.785-11.79-11.785M387.953 186.892l-16.775.029c-6.512.011-11.782 5.297-11.77 11.806l.002 1.521c.012 6.509 5.3 11.776 11.811 11.765l16.776-.03c6.511-.011 11.781-5.297 11.77-11.805l-.003-1.522c-.011-6.508-5.299-11.776-11.811-11.764M287.815 250.873c-3.149-3.147-8.044-5.564-12.566-5.564q-102.145.015-203.961.015-.597 0-.731-.582-3.329-13.052-3.94-26.822-.045-.954.925-.954l264.883-.015q.97 0 .911.969-1.613 32.58-17.433 59.925a.62.62 0 0 1-.459.309.63.63 0 0 1-.526-.175q-13.491-13.545-27.103-27.106"/><path fill="#000" d="M18.201 284.468c-10.044.015-17.163-7.429-18.193-17.364q-.09-.94.85-.94 132.337.045 264.093.03 6.462 0 11.357 4.341 5.657 4.998 12.477 13.008.807.925-.418.925-135.276-.015-270.166 0M336.261 283.379c2.91-4.982 5.134-10.636 6.537-16.23q.239-.97 1.238-.97l55.162.015q.896 0 .791.88c-1.313 12.083-9.567 17.573-21.282 17.469q-23.014-.195-41.79-.045-1.313.015-.656-1.119M54.125 323.627c-9.567 0-16.746-8.652-17.298-17.603q-.06-.984.925-.984l324.448.626q1 .015.955 1.015c-.328 7.145-4.895 13.619-11.477 16.141Q348.574 324 341.484 324c-95.786 0-191.856-.373-287.36-.373"/></svg>
